HTML/assets/city.svg

<?xml version="1.0" encoding="UTF-8"?>
<svg width="24px" height="24px" viewBox="0 0 24 24" version="1.1" xmlns="http://www.w3.org/2000/svg" xmlns:xlink="http://www.w3.org/1999/xlink">
    <!-- Generator: sketchtool 49 (51002) - http://www.bohemiancoding.com/sketch -->
    <title>85F4120A-5AB7-476E-B4AE-BAE184199C78</title>
    <desc>Created with sketchtool.</desc>
    <defs>
        <path d="M11,4 L11,20 L13,20 L13,4 L11,4 Z M10,2 L14,2 C14.5522847,2 15,2.44771525 15,3 L15,21 C15,21.5522847 14.5522847,22 14,22 L10,22 C9.44771525,22 9,21.5522847 9,21 L9,3 C9,2.44771525 9.44771525,2 10,2 Z M18,7 L22,7 C22.5522847,7 23,7.44771525 23,8 L23,21 C23,21.5522847 22.5522847,22 22,22 L18,22 C17.4477153,22 17,21.5522847 17,21 L17,8 C17,7.44771525 17.4477153,7 18,7 Z M19,9 L19,20 L21,20 L21,9 L19,9 Z M2,12 L6,12 C6.55228475,12 7,12.4477153 7,13 L7,21 C7,21.5522847 6.55228475,22 6,22 L2,22 C1.44771525,22 1,21.5522847 1,21 L1,13 C1,12.4477153 1.44771525,12 2,12 Z M3,14 L3,20 L5,20 L5,14 L3,14 Z" id="path-1"></path>
    </defs>
    <g id="Symbols" stroke="none" stroke-width="1" fill="none" fill-rule="evenodd">
        <g id="Icons-/-24px-/-city">
            <mask id="mask-2" fill="white">
                <use xlink:href="#path-1"></use>
            </mask>
            <use id="Combined-Shape" fill="#000000" fill-rule="nonzero" xlink:href="#path-1"></use>
            <g id="UI/Color/Flat/Black" mask="url(#mask-2)" fill="#000000">
                <rect id="Base" x="0" y="0" width="24" height="24"></rect>
            </g>
        </g>
    </g>
</svg>

<svg xmlns="http://www.w3.org/2000/svg" xmlns:xlink="http://www.w3.org/1999/xlink" width="24" height="24" viewBox="0 0 24 24">
    <defs>
        <path id="a" d="M11 4v16h2V4h-2zm-1-2h4a1 1 0 0 1 1 1v18a1 1 0 0 1-1 1h-4a1 1 0 0 1-1-1V3a1 1 0 0 1 1-1zm8 5h4a1 1 0 0 1 1 1v13a1 1 0 0 1-1 1h-4a1 1 0 0 1-1-1V8a1 1 0 0 1 1-1zm1 2v11h2V9h-2zM2 12h4a1 1 0 0 1 1 1v8a1 1 0 0 1-1 1H2a1 1 0 0 1-1-1v-8a1 1 0 0 1 1-1zm1 2v6h2v-6H3z"/>
    </defs>
    <g fill="none" fill-rule="evenodd">
        <mask id="b" fill="#fff">
            <use xlink:href="#a"/>
        </mask>
        <use fill="#000" fill-rule="nonzero" xlink:href="#a"/>
        <g fill="#000" mask="url(#b)">
            <path d="M0 0h24v24H0z"/>
        </g>
    </g>
</svg>
